X: 37858
T: Sorquoy, The
R: jig
M: 6/8
K: Dminor
|:DAA BAA|dAA BAA|GAA FDD|CDD FDD|
DAA BAA|dAA BAA|GAA FDD|CDF D3:|
|:G3 GFG|AGG GFD|CDD DCD|FDD DCD|
G3 GFG|AGG GFD|dcA GFD|FGA D3:|

